!!!id: 16xx:1272
!!!COM: Lasso, Orlando di
!!!OTL: Domine salvum me fac
!!!PDT:
!!!SMS-siglum: PL-Kk
!!!SMS-shelfmark: Kk.I.38
!!!NIFC-rismID: 1001154418
!!!URL-scan: http://repozytorium.nifc.pl/skany/pl-kk-nut--i-38
!!!ONB-nifc: Lib. 3. Fol. 14. 2da parte (jeśli występuje), należy do utworu tytułowego
!!!SMS-variant:
!!!SMS-altvar:
**kern	**text
*I"Baſso Ripieno.	*
*clefF4	*
*k[]	*
*M2/1	*
*met(C|)	*
=1-	=1-
!LO:TX:t=P:problem:po znakach przykluczowych:xstem cue E G B	!
00r	.
=2-	=2-
.	.
=3-	=3-
!LO:TX:t=P:problem:kreska pseudotaktowa	!
0r	.
=4-	=4-
!LO:TX:t=P:problem:kreska pseudotaktowa	!
0E	O
=5-	=5-
2r	.
1G	Do-
*2\right	*
2E\	-mi-
=6-	=6-
!LO:TX:t=P:problem:kreska pseudotaktowa	!
1E	-ne
2.C/	Sal-
4BB/	.
=7-	=7-
2AA/	-vum
4FF/	.
!LO:TX:t=P:problem:kreska pseudotaktowa	!
4GG/	.
4AA/	.
4BB/	.
4C/	.
4D/	.
=8-	=8-
2E\	.
!LO:TX:t=P:problem:kreska pseudotaktowa	!
2BB/	me
2.C/	fac
4BB/	.
=9-	=9-
4AA/	.
4BB/	.
4C/	.
4AA/	.
!LO:TX:t=P:problem:kreska pseudotaktowa	!
1E	.
=10-	=10-
1r	.
!LO:TX:t=P:problem:kreska pseudotaktowa	!
0F	O
=11-	=11-
.	.
1r	.
=12-	=12-
1.C	Do-
2C/	-mi-
=13-	=13-
!LO:TX:t=P:problem:kreska pseudotaktowa	!
1GG	-ne
1r	.
=14-	=14-
1D	be-
2G\	-nè
4C/	pro-
!LO:TX:t=P:problem:kreska pseudotaktowa	!
!LO:SIC:v:t=custos E	!
4D/	.
=15-	=15-
!LO:LB:g=original	!
4E\	.
4F\	.
1G	.
!LO:TX:t=P:problem:kreska pseudotaktowa	!
2C/	.
=16-	=16-
2.F\	-spe-
4E\	.
2D/	-ra-
!LO:TX:t=P:problem:kreska pseudotaktowa	!
2AA/	-re
=17-	=17-
2r	.
2D\	be-
2E\	-ne
2.G\	pro-
=18-	=18-
.	.
4F\	.
4E\	.
!LO:TX:t=P:problem:kreska pseudotaktowa	!
4D\	.
2C/	.
2AA/	-spe-
=19-	=19-
1D	-ra-
!LO:TX:t=P:problem:kreska pseudotaktowa	!
1C	-re
=20-	=20-
0r	.
=21-	=21-
!LO:TX:t=P:problem:kreska pseudotaktowa	!
1r	.
2r	.
!LO:TX:t=P:problem:kreska pseudotaktowa	!
2E\	Be-
=22-	=22-
2F\	-ne-
1A	-dic-
!LO:TX:t=P:problem:kreska pseudotaktowa	!
2G\	-t(us)
=23-	=23-
1C	qui
1D	ven-
=24-	=24-
2G\	-tu-
2G\	-r(us)
!LO:TX:t=P:problem:kreska pseudotaktowa	!
1C	est
=25-	=25-
00r	.
=26-	=26-
.	.
=27-	=27-
2r	.
2BB/	Be-
2C/	-ne-
1E\	-dic-
=28-	=28-
.	.
!LO:TX:t=P:problem:kreska pseudotaktowa	!
2C/	-t(us)
2F\	qui
2E\	ven-
=29-	=29-
2F\	-tu-
!LO:TX:t=P:problem:kreska pseudotaktowa	!
2D\	-r(us)
!LO:LB:g=original	!
2.C/	est
8BB/L	.
8AA/J	.
=30-	=30-
!LO:TX:t=P:problem:kreska pseudotaktowa	!
1GG	.
0r	.
=31-	=31-
.	.
!LO:TX:t=P:problem:kreska pseudotaktowa	!
1r	.
=32-	=32-
1E	in
2D\	No-
2D\	-mi-
=33-	=33-
!LO:TX:t=P:problem:kreska pseudotaktowa	!
1F	-ne
2.E\	Do-
4F\	.
=34-	=34-
2G\	.
2G\	-mi-
!LO:TX:t=P:problem:kreska pseudotaktowa	!
1D	-ni
=35-	=35-
0r	.
=36-	=36-
2r	.
2C/	in
2BB/	N(o-
2BB/	-mi)-
=37-	=37-
!LO:TX:t=P:problem:kreska pseudotaktowa	!
1D	-ne
2AA/	Do-
2C/	-mi-
=38-	=38-
2GG,/	-ni
2G\	in
2F\	No-
!LO:TX:t=P:problem:kreska pseudotaktowa	!
2F\	-mi-
=39-	=39-
1A,	-ne
2.G\	Do-
4G\	-mi-
=40-	=40-
!LO:TX:t=P:problem:kreska pseudotaktowa	!
1G	-ni
2r	.
2D\	in
=41-	=41-
2C/	No-
2C/	-mi-
!LO:TX:t=P:problem:kreska pseudotaktowa	!
!LO:SIC:v:t=custos D	!
1E	-ne
=42-	=42-
!LO:LB:g=original	!
2.D/	Do-
4C/	.
2AA/	.
!LO:TX:t=P:problem:kreska pseudotaktowa	!
2C/	-mi-
=43-	=43-
2GG,/	-ni
*	*ij
2G\	in
2F#X\	No-
2F#\	-mi-
=44-	=44-
1A	-ne
2.E\	Do-
4E\	-mi-
=45-	=45-
!LO:TX:t=P:problem:kreska pseudotaktowa	!
1E	-ni
*	*Xij
2r	.
2AA/	in
=46-	=46-
2A\	No-
2A\	-mi-
!LO:TX:t=P:problem:kreska pseudotaktowa	!
1E	-ne
=47-	=47-
1.D	Do-
2D\	-mi-
=48-	=48-
!LO:TX:t=P:problem:kreska pseudotaktowa	!
0AA;	-ni.
=49||-	=49||-
*M2/1	*
*met(C|)	*
!LO:TX:a:B:t=2da\nparte	!
1r	.
0E	Non
=50-	=50-
.	.
1.C	mo-
=51-	=51-
.	.
2GG/	-ri-
!LO:TX:t=P:problem:kreska pseudotaktowa	!
1GG	-ar
=52-	=52-
!LO:TX:t=P:problem:kreska pseudotaktowa	!
1r	.
*lig	*
1C	Non
=53-	=53-
*col	*
!LO:N:vis=1	!
2.c	.
*Xlig	*
4B\	.
*Xcol	*
1.A	mo-
=54-	=54-
.	.
2E\	-ri-
!LO:TX:t=P:problem:kreska pseudotaktowa	!
1E	-ar
=55-	=55-
1r	.
2r	.
2C/	sed
=56-	=56-
4Fny\	vi-
4E\	.
4F\	.
4G\	.
1A	-vam
=57-	=57-
!LO:TX:t=P:problem:kreska pseudotaktowa	!
1G	.
0r	.
=58-	=58-
.	.
2r	.
!LO:TX:t=P:problem:kreska pseudotaktowa	!
2C/	sed
=59-	=59-
4c\	vi-
4B\	.
4A\	.
!LO:TX:t=P:problem:kreska pseudotaktowa	!
4G\	.
2.F\	.
4E\	.
=60-	=60-
4D/	.
4C/	.
!LO:TX:t=P:problem:kreska pseudotaktowa	!
2D/	.
2AA,/	-vam
2A\	sed
=61-	=61-
4E\	vi-
4F\	.
4G\	.
!LO:TX:t=P:problem:kreska pseudotaktowa	!
4E\	.
4A\	.
4B\	.
4c\	.
4B\	.
=62-	=62-
4A\	.
4G\	.
2F\	.
!LO:TX:t=P:problem:kreska pseudotaktowa	!
1E	-vam
=63-	=63-
2r	.
1A\	et
2E\	nar-
=64-	=64-
1G	-ra-
!LO:TX:t=P:problem:kreska pseudotaktowa	!
1C	-bo
=65-	=65-
!LO:TX:t=P:problem:kreska pseudotaktowa	!
!LO:LB:g=original	!
1r	.
1GG	et
=66-	=66-
2BB/	nar-
2.C/	-ra-
4D/	.
4E/	.
4F/	.
=67-	=67-
2G\	.
!LO:TX:t=P:problem:kreska pseudotaktowa	!
2C/	-bo
0r	.
=68-	=68-
.	.
1AA	et
=69-	=69-
2D/	nar-
4GG/	-ra-
4AA/	.
4BB/	.
4GG/	.
2.C/	.
=70-	=70-
.	.
4D/	.
2E\	.
!LO:TX:t=P:problem:kreska pseudotaktowa	!
1AA	-bo.
=71-	=71-
1r	.
2AA/	et
2A\	nar-
=72-	=72-
2F\	-ra-
4F\	.
4G\	.
4A\	.
4G\	.
4F\	.
!LO:TX:t=P:problem:kreska pseudotaktowa	!
4E\	.
=73-	=73-
4D/	.
4C/	.
2D/	.
!LO:TX:t=P:problem:kreska pseudotaktowa	!
1C	-bo
=74-	=74-
2r	.
2.c\	o-
4c\	-pe-
!LO:TX:t=P:problem:kreska pseudotaktowa	!
2B\	-ra
=75-	=75-
2G\	Do-
2A\	-mi-
!LO:TX:t=P:problem:kreska pseudotaktowa	!
1G	-ni
=76-	=76-
!LO:LB:g=original	!
2r	.
2.A\	o-
4A\	-pe-
!LO:TX:t=P:problem:kreska pseudotaktowa	!
2G\	-ra
=77-	=77-
2E\	Do-
2F\	-mi-
!LO:TX:t=P:problem:kreska pseudotaktowa	!
1E	-ni
=78-	=78-
2r	.
2.F\	o-
4F\	-pe-
!LO:TX:t=P:problem:kreska pseudotaktowa	!
2E\	-ra
=79-	=79-
2C/	Do-
2D/	-mi-
!LO:TX:t=P:problem:kreska pseudotaktowa	!
1C	-ni
=80-	=80-
2r	.
2.D/	o-
4D/	-pe-
!LO:TX:t=P:problem:kreska pseudotaktowa	!
2C/	-ra
=81-	=81-
2AA/	Do-
2BB-X/	-mi-
2AA,/	-ni
*	*ij
2.A\	o-
=82-	=82-
.	.
4A\	-pe-
!LO:TX:t=P:problem:kreska pseudotaktowa	!
2G\	-ra
2E\	Do-
2F\	-mi-
=83-	=83-
!LO:TX:t=P:problem:kreska pseudotaktowa	!
1E	-ni
*	*Xij
2r	.
2.c\	o-
=84-	=84-
.	.
4c\	-pe-
!LO:TX:t=P:problem:kreska pseudotaktowa	!
2Bn\	-ra
2G\	Do-
2A\	-mi-
=85-	=85-
!LO:TX:t=P:problem:kreska pseudotaktowa	!
1G	-ni
!LO:LB:g=original	!
2r	.
2.C/	o-
=86-	=86-
.	.
4C/	-pe-
!LO:TX:t=P:problem:kreska pseudotaktowa	!
2BBny/	-ra
2GG/	Do-
2AA/	-mi-
=87-	=87-
!LO:TX:t=P:problem:oddech jako rozdzielacz słów:global	!
2GG,</	-ni
2.G\	o-
4G\	-pe-
!LO:TX:t=P:problem:kreska pseudotaktowa	!
2Fn\	-ra
=88-	=88-
2D\	Do-
2E\	.
2.D/	.
8C/L	-mi-
8BB/J	.
=89-	=89-
2AA,</	-ni
2.C/	o-
4C/	-pe-
!LO:TX:t=P:problem:kreska pseudotaktowa	!
2FF/	-ra
=90-	=90-
1.AA	Do-
2AA/	-mi-
=91-	=91-
0E;	-ni.
=-	=-
*-	*-
!!!RDF**kern: < = below
!!!RDF**kern: > = above
!!!ENC:Berenika Jozajtis
!!!END:2021-07-04
!!!ENC: Marta Chmielewska
!!!END: 2021-07-30
